src/img/svg_sprite/Program.svg

<svg xmlns="http://www.w3.org/2000/svg" viewBox="0 0 63 38"><title>Program</title><path d="M7 0H3a3 3 0 0 0-3 3v4a3 3 0 0 0 3 3h4a3 3 0 0 0 3-3V3a3 3 0 0 0-3-3zm0 7H3V3h4zm56-4a3 3 0 0 0-3-3H16a3 3 0 0 0-3 3v4a3 3 0 0 0 3 3h44a3 3 0 0 0 3-3zm-3 4H16V3h44zM10 17a3 3 0 0 0-3-3H3a3 3 0 0 0-3 3v4a3 3 0 0 0 3 3h4a3 3 0 0 0 3-3zm-3 4H3v-4h4zm56-4a3 3 0 0 0-3-3H16a3 3 0 0 0-3 3v4a3 3 0 0 0 3 3h44a3 3 0 0 0 3-3zm-3 4H16v-4h44zM10 31a3 3 0 0 0-3-3H3a3 3 0 0 0-3 3v4a3 3 0 0 0 3 3h4a3 3 0 0 0 3-3zm-3 4H3v-4h4zm56-4a3 3 0 0 0-3-3H16a3 3 0 0 0-3 3v4a3 3 0 0 0 3 3h44a3 3 0 0 0 3-3zm-3 4H16v-4h44z" fill="#3ff"/></svg>

<svg xmlns="http://www.w3.org/2000/svg" viewBox="0 0 63 38"><defs><style>.cls-1{fill:#3ff;}</style></defs><title>Program</title><g id="Layer_2" data-name="Layer 2"><g id="Mobile"><path class="cls-1" d="M7,0H3A3,3,0,0,0,0,3V7a3,3,0,0,0,3,3H7a3,3,0,0,0,3-3V3A3,3,0,0,0,7,0ZM7,7H3V3H7ZM63,3a3,3,0,0,0-3-3H16a3,3,0,0,0-3,3V7a3,3,0,0,0,3,3H60a3,3,0,0,0,3-3ZM60,7H16V3H60ZM10,17a3,3,0,0,0-3-3H3a3,3,0,0,0-3,3v4a3,3,0,0,0,3,3H7a3,3,0,0,0,3-3ZM7,21H3V17H7Zm56-4a3,3,0,0,0-3-3H16a3,3,0,0,0-3,3v4a3,3,0,0,0,3,3H60a3,3,0,0,0,3-3Zm-3,4H16V17H60ZM10,31a3,3,0,0,0-3-3H3a3,3,0,0,0-3,3v4a3,3,0,0,0,3,3H7a3,3,0,0,0,3-3ZM7,35H3V31H7Zm56-4a3,3,0,0,0-3-3H16a3,3,0,0,0-3,3v4a3,3,0,0,0,3,3H60a3,3,0,0,0,3-3Zm-3,4H16V31H60Z"/></g></g></svg>
